svg/u1f3aa.svg

<svg viewBox="0 0 128 128" xmlns="http://www.w3.org/2000/svg">
  <path d="M79.79,73.18L52.5,72.14l-4.87,46.76c0,0,7.48-0.52,17.38-0.52s18.25,0.7,18.25,0.7L79.79,73.18z" fill="#8A2E08"/>
  <path d="M24.9,79.72l-6.68-1.39c0,0-1.64,10.59-3.15,17.15s-4.02,15.43-4.02,15.43l15.88,7.89 c0,0,14.37,1.26,14.62,0.76c0.25-0.5,10.84-25.09,10.84-25.09l2.52-9.46L24.9,79.72z" fill="#FF6110"/>
  <path d="M74.57,84.89l33.28-6.93l1.51,4.03c0,0,2.19,9.16,3.4,14.12c1.95,7.96,4.46,15.09,4.46,15.09 l-14.93,9.24l-15.38-0.5L74.57,84.89z" fill="#FF6110"/>
  <path d="M18.14,74.38c0,0.23,0.16,1.9,0.08,3.12s-0.31,2.72-0.31,2.72s0.91,0.2,1.75,0.74 c0.84,0.54,2.52,2.6,2.52,2.6s3.28-1.21,5.27-0.46c3.06,1.15,4.36,3.98,4.36,3.98s3.13-2.91,6.96-2.29c3.74,0.6,5.2,4.13,5.2,4.13 s2.81-2.27,5.27-2.14c2.91,0.15,3.98,2.29,3.98,2.29l4.36-8.79l-32.41-5.89H18.14z" fill="#AF0D03"/>
  <path d="M9.42,115.05l1.76-4.66c0,0,7.8,3.82,13.45,5.5s12.31,1.91,12.31,1.91s-0.08-2.64-2.53-4.55 c-2.45-1.91-6.33-5.12-6.33-5.12l5.3-1.77l2.95-1.18l9.25,11.01l-2.98,7.42c0,0-6.5,0.84-16.89-1.83S9.42,115.05,9.42,115.05z" fill="#C9C9C9"/>
  <path d="M73.94,78.74c0.15,0.61,0.08,5.43,0.08,5.43l2.83,3.21c0,0,1.53-1.99,5.05-1.83 c3.52,0.15,5.12,1.76,5.12,1.76s2.14-2.6,5.05-3.13c2.91-0.54,5.73,0.99,5.73,0.99s1.99-3.67,4.89-4.51 c2.91-0.84,6.67,1.34,6.67,1.34l-1.55-9.44L79.3,74.61L73.94,78.74z" fill="#AF0D03"/>
  <path d="M116.91,110.24l1.83,4.66c0,0-5.58,4.36-12.77,6.35c-7.19,1.99-17.19,2.79-17.19,2.79l-2.92-16.39 l9.86-2.98l5.41,2.31c0,0-4.79,4.03-6.1,5.88c-2.49,3.5-1.6,5.72-1.6,5.72s7.64-0.69,13.53-3.21 C112.86,112.83,116.91,110.24,116.91,110.24z" fill="#C9C9C9"/>
  <path d="M31.82,108.02c0,0,3.39,1.52,5.12,2.75c2.14,1.53,4.28,3.82,4.97,7.49c0.48,2.53,0.69,5.35,0.69,5.35 s2.37,1.83,7.03-5.96s7.03-18.58,7.42-26.22c0.38-7.64,0.23-9.4,0.23-9.4L50.4,93.34l-10.17,9.25L31.82,108.02z" fill="#D92F0A"/>
  <path d="M57.34,82.07c0,0,0.8,6.94-8.55,15.55c-5.81,5.35-11.48,9.03-15.36,10.55 c-1.33,0.52-2.52,0.31-3.36,0.3c-2.74-0.04-2.23-0.51-0.7-1.29c1.8-0.92,7.03-2.83,16.82-11.85c7.83-7.22,8.37-14.44,8.37-14.44 l2.77-1.5V82.07z" fill="#FFFEFF"/>
  <path d="M89.16,124c0,0-3.44,1.22-8.64-5.81c-5.2-7.03-6.8-19.49-7.03-23.47 c-0.23-3.98-0.15-11.47-0.15-11.47l9.56,12c0,0,14.83,11.16,14.6,11.24s-4.84,2.98-6.57,5.89C87.4,118.26,89.16,124,89.16,124z" fill="#D92F0A"/>
  <path d="M72.81,79.94c0,0-0.14,2.62,0.37,4.61c1.07,4.2,4.76,8.74,9.56,13c6.19,5.5,13.38,9.33,13.91,9.48 c0.54,0.15,4.36,0.31,4.43-0.08c0.03-0.13,0.26-0.7-0.99-1.61c-2.57-1.85-8.26-5.11-12.92-8.79c-3.29-2.6-7.51-5.83-11.18-12.49 c-0.67-1.21-0.43-4.27-0.43-4.27L72.81,79.94z" fill="#FFFFFF"/>
  <path d="M21.97,57.28c0,0-7.96,1.04-8.21,2.17c-0.25,1.14,0.63,16.16,0.63,16.16s3.35-0.62,5.04-0.25 s4.87,2.43,4.87,2.43l5.33-3.28l3.84,5.33c0,0,2.71-1.4,6.46-1.03s6.27,2.9,6.27,2.9l5.24-4.31l5.85,4.6c0,0,2.67-3.11,7.63-3.2 c4.96-0.09,7.96,3.56,7.96,3.56l6.55-5.71l6.46,4.96c0,0,2.53-2.06,5.43-2.71c2.9-0.66,5.05,0.47,5.05,0.47l4.12-7.3l4.68,3.37 c0,0,1.5-1.78,3.65-2.06s4.77-0.37,4.77-0.37s-0.19-10.11-0.19-11.61c0-1.5-0.56-3.93-1.22-4.4s-6.55-1.78-6.55-1.78L21.97,57.28z" fill="#D92F0A"/>
  <path d="M32.5,61.65l-7.81,1.81l-0.4,14.34c0,0,2.38-0.69,4.76-0.44s4.41,2.5,4.41,2.5s-0.05-9.32,0.03-10.89 s0.69-4.55,1.02-5.12C34.84,63.27,32.5,61.65,32.5,61.65z" fill="#E1E1E1"/>
  <path d="M53.06,64.7l-7.13,2.61c0,0-0.19,6.6-0.02,9.23c0.16,2.63,0.28,5.19,0.28,5.19s3.25-1.08,5.89-0.92 c2.63,0.16,5.2,1.21,5.2,1.21l-0.1-14.12L53.06,64.7z" fill="#E1E1E1"/>
  <path d="M72.64,67.66c0,0,0.25,5.35,0.33,8.06c0.08,2.71-0.1,6.67-0.1,6.67s3.88-1.98,6.93-2.23 c3.04-0.25,6.08,1.48,6.08,1.48s-0.24-5.59-0.57-9.7c-0.23-2.87-1.07-5.35-1.07-5.35l-7.81-4.19L72.64,67.66z" fill="#E1E1E1"/>
  <path d="M96.36,79.39c0,0,2.59-2.85,4.65-3.51c2.06-0.66,4.15-0.42,4.15-0.42s-0.12-6.73-0.45-9.78 c-0.33-3.04-0.63-4.79-0.63-4.79l-9.56-4.09l0.27,7.52c0,0,1.13,2.51,1.46,6.87C96.57,75.55,96.36,79.39,96.36,79.39z" fill="#E1E1E1"/>
  <path d="M64.42,29.82l-11.54,5.14c0,0-10.49,7.87-18.79,13.12s-13.07,7.25-14.06,7.66 c-1.58,0.66-4.14,1.44-5.25,2.2c-1.84,1.28-1.07,1.88-0.77,1.98s9.48,4.21,25.75,6.62s38.39,1.43,49.73-0.77 c11.33-2.2,22.69-8.76,22.69-8.76s-0.95-1.59-7.24-4.32c-6.3-2.73-11.65-5.67-20.78-11.65s-11.33-8.92-11.33-8.92L64.42,29.82z" fill="#FF6110"/>
  <path d="M54.66,37.06c0,0-12.7,13.01-28.34,23.82c-1.71,1.18-1.63,2.58-1.63,2.58s1.26,0.48,4.36,1.2 c3.15,0.73,4.96,0.91,4.96,0.91s1.43-1.64,4.48-4.69c5.46-5.46,8.85-9.79,13.12-15.32c2.83-3.67,6.2-8.07,6.2-8.07L54.66,37.06z" fill="#FFFFFF"/>
  <path d="M60.12,38.74c0,0-4.62,10.7-6.82,15.32c-1.04,2.17-3.36,6.19-5.46,9.55 c-1.83,2.93-1.91,3.71-1.91,3.71s4.11,0.59,6.1,0.59c1.99,0,5.14-0.02,5.14-0.02s1.58-4.71,3.26-14.15 c0.98-5.49,2.41-15.11,2.41-15.11L60.12,38.74z" fill="#FFFFFF"/>
  <path d="M66.52,39.16c0,0,1.04,10.31,2.2,15.74c1.57,7.35,3.91,12.75,3.91,12.75s3.96-0.16,6.16-0.37 c2.2-0.21,5.43-0.7,5.43-0.7s-3.78-5.82-7.43-11.68c-2.41-3.88-6.93-12.91-7.66-16.37C68.51,35.55,66.52,39.16,66.52,39.16z" fill="#FFFFFF"/>
  <path d="M72.18,37.27c0,0.31,3.32,7.39,11.54,16.27c6.61,7.14,11.02,10.81,11.02,10.81s3.77-1.16,5.46-1.78 c1.99-0.73,3.88-1.68,3.88-1.68s-8.92-6.19-14.17-10.49c-5.25-4.3-12.49-10.28-14.48-13.01C73.44,34.65,72.18,37.27,72.18,37.27z" fill="#FFFFFF"/>
  <path d="M64.31,22.69c-2.21,0.16-2.94,3.88-4.09,5.04c-1.15,1.15-7.35,7.24-7.35,7.24s1.1,5.75,12.02,5.64 c9.99-0.11,11.89-4.84,11.89-4.84s-6.38-6.78-7.85-8.46C67.46,25.62,67.25,22.48,64.31,22.69z" fill="#D92F0A"/>
  <path d="M64.68,17.83c0,0,1.89-0.6,4.58-0.29c2.74,0.32,4.56,1.21,7.41,1.15c4.36-0.08,7.87-2.13,9.13-3.29 s2.87-3.04,2.03-3.67c-0.84-0.63-4.42,0.32-8.42-1.26c-3.53-1.39-5.3-5.02-10.31-5.6c-4.31-0.49-5.57,1.28-5.57,1.28L64.68,17.83z" fill="#FF6110"/>
  <polygon points="63,4.89 63,24.56 66.15,23.72 65.84,4.89 " fill="#D92F0A"/>
</svg>

<svg viewBox="0 0 128 128" xmlns="http://www.w3.org/2000/svg">
  <defs/>
  <path d="M79.79,73.18 L52.5,72.14 L47.63,118.9 C47.63,118.9 55.11,118.38 65.01,118.38 C74.91,118.38 83.26,119.08 83.26,119.08 L79.79,73.18 Z" fill="#8A2E08"/>
  <path d="M24.9,79.72 L18.22,78.33 C18.22,78.33 16.58,88.92 15.07,95.48 C13.56,102.04 11.05,110.91 11.05,110.91 L26.93,118.8 C26.93,118.8 41.3,120.06 41.55,119.56 C41.8,119.06 52.39,94.47 52.39,94.47 L54.91,85.01 L24.9,79.72 Z" fill="#FF6110"/>
  <path d="M74.57,84.89 L107.85,77.96 L109.36,81.99 C109.36,81.99 111.55,91.15 112.76,96.11 C114.71,104.07 117.22,111.2 117.22,111.2 L102.29,120.44 L86.91,119.94 L74.57,84.89 Z" fill="#FF6110"/>
  <path d="M18.14,74.38 C18.14,74.61 18.3,76.28 18.22,77.5 C18.14,78.72 17.91,80.22 17.91,80.22 C17.91,80.22 18.82,80.42 19.66,80.96 C20.5,81.5 22.18,83.56 22.18,83.56 C22.18,83.56 25.46,82.35 27.45,83.1 C30.51,84.25 31.81,87.08 31.81,87.08 C31.81,87.08 34.94,84.17 38.77,84.79 C42.51,85.39 43.97,88.92 43.97,88.92 C43.97,88.92 46.78,86.65 49.24,86.78 C52.15,86.93 53.22,89.07 53.22,89.07 L57.58,80.28 L25.17,74.39 L18.14,74.39 Z" fill="#AF0D03"/>
  <path d="M9.42,115.05 L11.18,110.39 C11.18,110.39 18.98,114.21 24.63,115.89 C30.28,117.57 36.94,117.8 36.94,117.8 C36.94,117.8 36.86,115.16 34.41,113.25 C31.96,111.34 28.08,108.13 28.08,108.13 L33.38,106.36 L36.33,105.18 L45.58,116.19 L42.6,123.61 C42.6,123.61 36.1,124.45 25.71,121.78 C15.32,119.11 9.42,115.05 9.42,115.05 Z" fill="#C9C9C9"/>
  <path d="M73.94,78.74 C74.09,79.35 74.02,84.17 74.02,84.17 L76.85,87.38 C76.85,87.38 78.38,85.39 81.9,85.55 C85.42,85.7 87.02,87.31 87.02,87.31 C87.02,87.31 89.16,84.71 92.07,84.18 C94.98,83.64 97.8,85.17 97.8,85.17 C97.8,85.17 99.79,81.5 102.69,80.66 C105.6,79.82 109.36,82 109.36,82 L107.81,72.56 L79.3,74.61 L73.94,78.74 Z" fill="#AF0D03"/>
  <path d="M116.91,110.24 L118.74,114.9 C118.74,114.9 113.16,119.26 105.97,121.25 C98.78,123.24 88.78,124.04 88.78,124.04 L85.86,107.65 L95.72,104.67 L101.13,106.98 C101.13,106.98 96.34,111.01 95.03,112.86 C92.54,116.36 93.43,118.58 93.43,118.58 C93.43,118.58 101.07,117.89 106.96,115.37 C112.86,112.83 116.91,110.24 116.91,110.24 Z" fill="#C9C9C9"/>
  <path d="M31.82,108.02 C31.82,108.02 35.21,109.54 36.94,110.77 C39.08,112.3 41.22,114.59 41.91,118.26 C42.39,120.79 42.6,123.61 42.6,123.61 C42.6,123.61 44.97,125.44 49.63,117.65 C54.29,109.86 56.66,99.07 57.05,91.43 C57.43,83.79 57.28,82.03 57.28,82.03 L50.4,93.34 L40.23,102.59 L31.82,108.02 Z" fill="#D92F0A"/>
  <path d="M57.34,82.07 C57.34,82.07 58.14,89.01 48.79,97.62 C42.98,102.97 37.31,106.65 33.43,108.17 C32.1,108.69 30.91,108.48 30.07,108.47 C27.33,108.43 27.84,107.96 29.37,107.18 C31.17,106.26 36.4,104.35 46.19,95.33 C54.02,88.11 54.56,80.89 54.56,80.89 L57.33,79.39 L57.33,82.07 Z" fill="#FFFEFF"/>
  <path d="M89.16,124 C89.16,124 85.72,125.22 80.52,118.19 C75.32,111.16 73.72,98.7 73.49,94.72 C73.26,90.74 73.34,83.25 73.34,83.25 L82.9,95.25 C82.9,95.25 97.73,106.41 97.5,106.49 C97.27,106.57 92.66,109.47 90.93,112.38 C87.4,118.26 89.16,124 89.16,124 Z" fill="#D92F0A"/>
  <path d="M72.81,79.94 C72.81,79.94 72.67,82.56 73.18,84.55 C74.25,88.75 77.94,93.29 82.74,97.55 C88.93,103.05 96.12,106.88 96.65,107.03 C97.19,107.18 101.01,107.34 101.08,106.95 C101.11,106.82 101.34,106.25 100.09,105.34 C97.52,103.49 91.83,100.23 87.17,96.55 C83.88,93.95 79.66,90.72 75.99,84.06 C75.32,82.85 75.56,79.79 75.56,79.79 L72.81,79.94 Z" fill="#FFFFFF"/>
  <path d="M21.97,57.28 C21.97,57.28 14.01,58.32 13.76,59.45 C13.51,60.59 14.39,75.61 14.39,75.61 C14.39,75.61 17.74,74.99 19.43,75.36 C21.12,75.73 24.3,77.79 24.3,77.79 L29.63,74.51 L33.47,79.84 C33.47,79.84 36.18,78.44 39.93,78.81 C43.68,79.18 46.2,81.71 46.2,81.71 L51.44,77.4 L57.29,82 C57.29,82 59.96,78.89 64.92,78.8 C69.88,78.71 72.88,82.36 72.88,82.36 L79.43,76.65 L85.89,81.61 C85.89,81.61 88.42,79.55 91.32,78.9 C94.22,78.24 96.37,79.37 96.37,79.37 L100.49,72.07 L105.17,75.44 C105.17,75.44 106.67,73.66 108.82,73.38 C110.97,73.1 113.59,73.01 113.59,73.01 C113.59,73.01 113.4,62.9 113.4,61.4 C113.4,59.9 112.84,57.47 112.18,57 C111.52,56.53 105.63,55.22 105.63,55.22 L21.97,57.28 Z" fill="#D92F0A"/>
  <path d="M32.5,61.65 L24.69,63.46 L24.29,77.8 C24.29,77.8 26.67,77.11 29.05,77.36 C31.43,77.61 33.46,79.86 33.46,79.86 C33.46,79.86 33.41,70.54 33.49,68.97 C33.57,67.4 34.18,64.42 34.51,63.85 C34.84,63.27 32.5,61.65 32.5,61.65 Z" fill="#E1E1E1"/>
  <path d="M53.06,64.7 L45.93,67.31 C45.93,67.31 45.74,73.91 45.91,76.54 C46.07,79.17 46.19,81.73 46.19,81.73 C46.19,81.73 49.44,80.65 52.08,80.81 C54.71,80.97 57.28,82.02 57.28,82.02 L57.18,67.9 L53.06,64.7 Z" fill="#E1E1E1"/>
  <path d="M72.64,67.66 C72.64,67.66 72.89,73.01 72.97,75.72 C73.05,78.43 72.87,82.39 72.87,82.39 C72.87,82.39 76.75,80.41 79.8,80.16 C82.84,79.91 85.88,81.64 85.88,81.64 C85.88,81.64 85.64,76.05 85.31,71.94 C85.08,69.07 84.24,66.59 84.24,66.59 L76.43,62.4 L72.64,67.66 Z" fill="#E1E1E1"/>
  <path d="M96.36,79.39 C96.36,79.39 98.95,76.54 101.01,75.88 C103.07,75.22 105.16,75.46 105.16,75.46 C105.16,75.46 105.04,68.73 104.71,65.68 C104.38,62.64 104.08,60.89 104.08,60.89 L94.52,56.8 L94.79,64.32 C94.79,64.32 95.92,66.83 96.25,71.19 C96.57,75.55 96.36,79.39 96.36,79.39 Z" fill="#E1E1E1"/>
  <path d="M64.42,29.82 L52.88,34.96 C52.88,34.96 42.39,42.83 34.09,48.08 C25.79,53.33 21.02,55.33 20.03,55.74 C18.45,56.4 15.89,57.18 14.78,57.94 C12.94,59.22 13.71,59.82 14.01,59.92 C14.31,60.02 23.49,64.13 39.76,66.54 C56.03,68.95 78.15,67.97 89.49,65.77 C100.82,63.57 112.18,57.01 112.18,57.01 C112.18,57.01 111.23,55.42 104.94,52.69 C98.64,49.96 93.29,47.02 84.16,41.04 C75.03,35.06 72.83,32.12 72.83,32.12 L64.42,29.82 Z" fill="#FF6110"/>
  <path d="M54.66,37.06 C54.66,37.06 41.96,50.07 26.32,60.88 C24.61,62.06 24.69,63.46 24.69,63.46 C24.69,63.46 25.95,63.94 29.05,64.66 C32.2,65.39 34.01,65.57 34.01,65.57 C34.01,65.57 35.44,63.93 38.49,60.88 C43.95,55.42 47.34,51.09 51.61,45.56 C54.44,41.89 57.81,37.49 57.81,37.49 L54.66,37.06 Z" fill="#FFFFFF"/>
  <path d="M60.12,38.74 C60.12,38.74 55.5,49.44 53.3,54.06 C52.26,56.23 49.94,60.25 47.84,63.61 C46.01,66.54 45.93,67.32 45.93,67.32 C45.93,67.32 50.04,67.91 52.03,67.91 C54.02,67.91 57.17,67.89 57.17,67.89 C57.17,67.89 58.75,63.18 60.43,53.74 C61.41,48.25 62.84,38.63 62.84,38.63 L60.12,38.74 Z" fill="#FFFFFF"/>
  <path d="M66.52,39.16 C66.52,39.16 67.56,49.47 68.72,54.9 C70.29,62.25 72.63,67.65 72.63,67.65 C72.63,67.65 76.59,67.49 78.79,67.28 C80.99,67.07 84.22,66.58 84.22,66.58 C84.22,66.58 80.44,60.76 76.79,54.9 C74.38,51.02 69.86,41.99 69.13,38.53 C68.51,35.55 66.52,39.16 66.52,39.16 Z" fill="#FFFFFF"/>
  <path d="M72.18,37.27 C72.18,37.58 75.5,44.66 83.72,53.54 C90.33,60.68 94.74,64.35 94.74,64.35 C94.74,64.35 98.51,63.19 100.2,62.57 C102.19,61.84 104.08,60.89 104.08,60.89 C104.08,60.89 95.16,54.7 89.91,50.4 C84.66,46.1 77.42,40.12 75.43,37.39 C73.44,34.65 72.18,37.27 72.18,37.27 Z" fill="#FFFFFF"/>
  <path d="M64.31,22.69 C62.1,22.85 61.37,26.57 60.22,27.73 C59.07,28.88 52.87,34.97 52.87,34.97 C52.87,34.97 53.97,40.72 64.89,40.61 C74.88,40.5 76.78,35.77 76.78,35.77 C76.78,35.77 70.4,28.99 68.93,27.31 C67.46,25.62 67.25,22.48 64.31,22.69 Z" fill="#D92F0A"/>
  <path d="M64.68,17.83 C64.68,17.83 66.57,17.23 69.26,17.54 C72,17.86 73.82,18.75 76.67,18.69 C81.03,18.61 84.54,16.56 85.8,15.4 C87.06,14.24 88.67,12.36 87.83,11.73 C86.99,11.1 83.41,12.05 79.41,10.47 C75.88,9.08 74.11,5.45 69.1,4.87 C64.79,4.38 63.53,6.15 63.53,6.15 L64.68,17.83 Z" fill="#FF6110"/>
  <path d="M63,4.89 L63,24.56 L66.15,23.72 L65.84,4.89 Z" fill="#D92F0A"/>
</svg>
